X: 1
T: Alunelul  [F]
O: Romania
Z: John Chambers <jc@trillian.mit.edu>
M: 1/2
L: 1/8
K: F
(3[AF][BG][=B^G] \
|: "F"[cA]>[=B^G] [cA]>[dB] | "C7"[cA]>[BG] [AF]>[GE] \
| "F"M[F2C] "C"M[G2E] | "F"[A2F] (3[AF][BG][=B^G] \
| "F"[cA]>[=B^G] [cA]>[dB] | "C7"[cA]>[BG] [AF]>[GE] \
| "Dm"M[F2D] "A7"M[E2^C] | "Dm"[D4] :|
(3CDE \
|: "F"[F2C] [A2F] | "C7"[G2E2]>>[E2C2] \
| "F"[F2C] [A2F] | [c4A] \
| "F"[F2C] [A2F] | "C7"[G2E2]>>[E2C2] \
| "Dm"M[F2D] "A7"M[E2^C] | "Dm"[D4] :|


